X: 29
T:Na beira do mar
M:2/4
L:1/8
Q:200
C:Trad
S:X.L.Foxo
R:Pasodoble
K:D
A | F {c}F2 G | A{c}A2 B  c{G}c- cB | A3 c | B {c} B2 A | G{c}G2 B |
A{G}A{c} AG | F3A | F{D}F {c}FG | A3 B | c{G}c {d}cB | A3c | B{d}B2 A|
G{c}G2 B | A{c}A2G | F3-F|| c3 {G}c | B{G}B A{G}A | B2A2- | A4 | B3 {G}B
 |
A{G}A G{D}G | A2G2- | G4 | c3 {G}c | B{G}B A{G}A | B2 A2- A4 |: B3 {G}B
|
A{G}A G{D}G | AG AB | c4- | c A{c} A{G}A | G2 F2- |1 F4 :|2 F3 ||

